src/lib/packages/icons/src/assets/filled/send.svg

<svg width="24" height="24" viewBox="0 0 24 24" fill="none" xmlns="http://www.w3.org/2000/svg">
<path d="M18.447 3.06298L5.33394 6.34099C2.20094 7.12399 2.23193 11.588 5.37593 12.328L9.45503 13.288C9.55603 13.312 9.66303 13.282 9.73603 13.208L14.4741 8.46999C14.7641 8.17999 15.2439 8.17999 15.5339 8.46999C15.8239 8.75999 15.8239 9.23999 15.5339 9.52999L10.7939 14.27C10.7209 14.343 10.6901 14.45 10.7141 14.551L11.673 18.626C12.413 21.77 16.8769 21.801 17.6599 18.668L20.9379 5.55498C21.3129 4.04898 19.95 2.68698 18.447 3.06298Z" fill="currentColor"/>
</svg>

<svg xmlns="http://www.w3.org/2000/svg" width="24" height="24" fill="none"><path fill="currentColor" d="M18.447 3.063 5.334 6.341c-3.133.783-3.102 5.247.042 5.987l4.079.96a.298.298 0 0 0 .281-.08l4.738-4.738c.29-.29.77-.29 1.06 0 .29.29.29.77 0 1.06l-4.74 4.74a.3.3 0 0 0-.08.281l.959 4.075c.74 3.144 5.204 3.175 5.987.042l3.278-13.113c.375-1.506-.988-2.868-2.491-2.492Z"/></svg>
